X: 18111
T: Humours Of Bandon, The
R: jig
M: 6/8
K: Gmajor
|:D|D>GG {A/}GFG|{B/c/}BAG FGA|{A/}d2 G {A/}GFG|Bcd =fef|
{d/e/}d2 e c2 d|{d/}cAG FGA|BAG F<DF|G3 G2:|
|:B|d>gg {g/f/}gfg|f<ag f2 a|{g/f/}g2 f d2 e|{f/g/}=f2 d c2 e|
{d/e/}d2 c A2 B|{c/d/}c2 A G2 B|{A/B/}A2 G F2 A|{A/}GFE {A/B/}A2 E|
D>GG {A/}GFG|{B/c/}BAG FGA|{A/}d2 G {A/}GFG|Bcd =fef|
{d/e/}d2 e c2 d|{d/}cAG FGA|BAG F<DF|G3 G2:|

